X:1
T:Dan Bryant's Waltz
M:3/4
L:1/8
R:Waltz
N:for the banjo
B:James Buckley -- Buckley's New Banjo Method (1860, p. 37)
Z:AK/Fiddler's Companion
K:A
e>EA2c2|(3efe dB [E2G2]|B,>EG>dG>B|A,>EA>cE>A|
e>EA>cA>c|(3efe d>B Gz|B,>E G>d FG|A2 G,2z2||
"5th Pos."D>Ad>fA>d|"4th Pos."A,>Ac>eA>c|B,>E G>d E>G|A,E A>c e2|
DAdfAd|A,AceAc|B,E Gd EG|A2 A,2z2||

